X:155
T: Lockung
N: A0190
O: Europa, Mitteleuropa, Deutschland
N: Nach Forster II 1540 No. 73, dort rhythmisch entstellt, mit
N: zweimaligem Taktwechsel. Alles deutet auf durchgaengigen Tripeltakt,
N: den ich durch geringfuegige Aenderungen hergestellt habe.
R: Romanze, Ballade, Lied
M: 6/2
L: 1/4
K: F
F2 | F4F2A4B2 | c4A2F4
f2 | f4f2e4c2 | d6c4
F2 | c4f2e2c2d2 | c4c2A4
d2 | c3BA2G2F2E2 | D6C4
C2 | F3GABc4BA | G6F4

@@@ Tune index: 155
